X: 33151
T: Princess Royal, The
R: reel
M: 4/4
K: Dmajor
|:AG|F2 E2 D2 AG|FG EF D2 A2|B2 G2 GA BG|A2 F2 F3 A|
G2 F2 E2 D2|CD EC A,2 AG|FE DF E2 C2|D4 D2:|
|:A2|B3 A B3 A|B2 c2 d3 c|d2 c2 B2 A2|FE DF E3 A,|
D2 D2 E3 E|FE D2 d3 c|d2 A2 B3 B|A2 F2 G3 F|
G2 F2 E2 D2|CD EC A,2 AG|FE DF E2 C2|D4 D2:|

